src/garlic.svg

<svg width="16" height="16" viewBox="0 0 16 16" fill="none" xmlns="http://www.w3.org/2000/svg">
<g id="garlic">
<path id="Vector" d="M12.488 11.8C12.148 12.535 10.868 13.082 10.699 13.082C10.762 12.872 10.824 12.699 10.871 12.523C11.184 11.332 11.305 10.621 10.734 9.547C10.383 8.891 9.39097 8.067 9.45697 8.223C9.90997 9.27 10.059 9.41 10.187 10.262C10.285 10.879 10.277 12.664 9.52697 13.262C9.26197 13.469 9.06297 13.52 8.72697 13.566C8.55097 13.594 8.19097 13.586 8.03497 13.492C7.76197 13.328 7.88297 13.07 8.01197 12.859C8.54697 11.989 8.46097 10.973 8.22197 9.973C8.09797 9.461 7.55897 8.816 7.58197 8.984C7.91397 11.211 7.42197 13.054 6.46497 12.648C5.85897 12.391 5.70697 12.047 5.44897 11.371C5.31595 11.0053 5.26807 10.614 5.30897 10.227C5.36697 9.648 5.44497 9.039 5.45697 9.023C5.52697 8.914 4.80097 9.539 4.66797 10.605C4.54697 11.559 4.80497 12.328 5.65597 13.031C5.67597 13.047 5.69097 13.066 5.71097 13.086C4.93397 13.226 4.30497 13.074 3.75797 12.383C3.13697 11.598 3.16797 10.809 3.32397 10.008C3.47697 9.218 4.15997 8.438 4.94097 7.93C5.52297 7.55 6.13697 7.266 6.60497 6.746C6.78097 6.551 6.86697 6.546 6.85497 6.476C6.89497 6.691 6.88297 6.871 6.87497 7.016C6.83997 7.555 6.60197 7.645 6.73497 7.613C7.34397 7.473 7.48797 6.422 7.55097 6.121C7.63297 5.734 7.73397 4.617 7.72697 4.383C7.72297 4.348 7.72297 4.313 7.71897 4.273C7.85897 4.914 8.15597 5.785 8.41797 6.191C8.51997 6.383 9.21797 7.027 9.37497 7.148C9.69897 7.398 10.047 7.301 10.43 7.449C11.152 7.73 11.64 8.113 12.164 8.691C12.988 9.601 12.984 10.727 12.488 11.801V11.8ZM13.094 7.949C12.516 7.344 11.813 6.816 11.031 6.516C10.781 6.418 10.828 6.43 10.117 5.796C9.40697 5.16 9.15697 3.5 10.473 2.441C10.473 2.441 8.69897 2.711 8.75797 4.594C8.24597 3.312 8.58597 1.469 8.76597 0.5C8.76597 0.5 7.64797 1.328 7.62497 3.438C7.62497 3.52 7.71497 4.191 7.71897 4.273C7.36697 2.395 6.21097 1.433 6.21097 1.433C6.51597 2.277 6.81197 3.855 6.58597 4.949C6.34797 3.004 4.66397 2.441 4.66397 2.441C5.18397 3.234 6.10497 4.527 5.55397 6.27C5.27654 6.4982 4.97706 6.69819 4.65997 6.867C4.27297 7.074 3.88297 7.371 3.52697 7.633C2.85897 8.129 2.47697 8.933 2.21897 9.703C1.74997 11.102 2.04697 12.34 3.03097 13.418C3.54297 13.98 4.19897 14.262 4.97297 14.184C5.17197 14.164 5.12897 14.137 5.25797 14.129C5.04297 14.301 4.81197 14.649 4.45697 14.899C4.65197 14.829 5.49197 14.457 5.68697 14.387L6.30097 15.305C6.28897 15.008 6.27697 14.711 6.26097 14.418C6.26997 14.418 6.27297 14.418 6.27697 14.422C6.67597 14.77 7.11297 15.082 7.57797 15.352C7.54297 15.132 7.50797 14.914 7.46797 14.695C7.72297 14.988 7.99997 15.254 8.30497 15.5L8.42197 14.7C8.43697 14.7 8.45297 14.695 8.46897 14.695C8.89897 14.915 9.33597 15.125 9.77697 15.325C9.60953 15.0388 9.36987 14.8015 9.08197 14.637C9.75797 14.73 10.43 14.988 11.113 14.98C10.719 14.871 10.336 14.547 9.94097 14.434C10.715 14.293 11.511 14.527 12.297 14.473C11.82 14.355 11.301 14.012 10.805 14.023H10.727C10.898 13.988 11.074 14.012 11.266 13.993C11.786 13.941 12.266 13.723 12.676 13.406C13.586 12.707 13.969 11.754 14 10.703C13.992 9.59 13.816 8.703 13.094 7.949Z" fill="#111111"/>
</g>
</svg>

<svg width="16" height="16" fill="none" xmlns="http://www.w3.org/2000/svg"><path d="M12.488 11.8c-.34.735-1.62 1.282-1.789 1.282.063-.21.125-.383.172-.559.313-1.191.434-1.902-.137-2.976-.351-.656-1.343-1.48-1.277-1.324.453 1.047.602 1.187.73 2.039.098.617.09 2.402-.66 3-.265.207-.464.258-.8.304-.176.028-.536.02-.692-.074-.273-.164-.152-.422-.023-.633.535-.87.449-1.886.21-2.886-.124-.512-.663-1.157-.64-.989.332 2.227-.16 4.07-1.117 3.664-.606-.257-.758-.601-1.016-1.277a2.56 2.56 0 0 1-.14-1.144c.058-.579.136-1.188.148-1.204.07-.109-.656.516-.789 1.582-.121.954.137 1.723.988 2.426.02.016.035.035.055.055-.777.14-1.406-.012-1.953-.703-.621-.785-.59-1.574-.434-2.375.153-.79.836-1.57 1.617-2.078.582-.38 1.196-.664 1.664-1.184.176-.195.262-.2.25-.27.04.215.028.395.02.54-.035.539-.273.629-.14.597.609-.14.753-1.191.816-1.492.082-.387.183-1.504.176-1.738-.004-.035-.004-.07-.008-.11.14.641.437 1.512.699 1.918.102.192.8.836.957.957.324.25.672.153 1.055.301.722.281 1.21.664 1.734 1.242.824.91.82 2.036.324 3.11V11.8Zm.606-3.851c-.578-.605-1.281-1.133-2.063-1.433-.25-.098-.203-.086-.914-.72-.71-.636-.96-2.296.356-3.355 0 0-1.774.27-1.715 2.153-.512-1.282-.172-3.125.008-4.094 0 0-1.118.828-1.141 2.938 0 .082.09.753.094.835-.352-1.878-1.508-2.84-1.508-2.84.305.844.601 2.422.375 3.516-.238-1.945-1.922-2.508-1.922-2.508.52.793 1.441 2.086.89 3.829a5.407 5.407 0 0 1-.894.597c-.387.207-.777.504-1.133.766-.668.496-1.05 1.3-1.308 2.07-.469 1.399-.172 2.637.812 3.715.512.562 1.168.844 1.942.766.199-.02.156-.047.285-.055-.215.172-.446.52-.801.77.195-.07 1.035-.442 1.23-.512l.614.918c-.012-.297-.024-.594-.04-.887.009 0 .012 0 .016.004.399.348.836.66 1.301.93-.035-.22-.07-.438-.11-.657.255.293.532.559.837.805l.117-.8c.015 0 .031-.005.047-.005.43.22.867.43 1.308.63a1.894 1.894 0 0 0-.695-.688c.676.093 1.348.351 2.031.343-.394-.109-.777-.433-1.172-.546.774-.141 1.57.093 2.356.039-.477-.118-.996-.461-1.492-.45h-.078c.171-.035.347-.011.539-.03.52-.052 1-.27 1.41-.587.91-.699 1.293-1.652 1.324-2.703-.008-1.113-.184-2-.906-2.754Z" fill="#111"/></svg>
